resources/svg/house-bold.svg

<svg xmlns="http://www.w3.org/2000/svg" viewBox="0 0 256 256" fill="currentColor"><path d="M208,227.999h-.00195l-48.00684-.00634a20.02261,20.02261,0,0,1-19.99707-20v-44.001h-24v44.001a20.02282,20.02282,0,0,1-19.99805,20l-47.99316.00634A20.00016,20.00016,0,0,1,28,207.999V115.53857a20.03619,20.03619,0,0,1,6.54687-14.79882l79.99219-72.7334a19.92168,19.92168,0,0,1,26.90821-.002l80.00683,72.73584A20.046,20.046,0,0,1,228,115.53906v92.46a20.00016,20.00016,0,0,1-20,20Zm-44.00586-24.00586L204,203.99854V117.30811L127.99414,48.21,52,117.30811v86.69043l39.99414-.00538V159.9917a20.0226,20.0226,0,0,1,20-20h32a20.0226,20.0226,0,0,1,20,20Z"/></svg>

<svg xmlns="http://www.w3.org/2000/svg" viewBox="0 0 256 256" fill="currentColor"><path d="M208,228H160a20.1,20.1,0,0,1-20-20V164H116v44a20.1,20.1,0,0,1-20,20H48a20.1,20.1,0,0,1-20-20V115.5a20,20,0,0,1,6.6-14.8L114.5,28a20,20,0,0,1,27,0l80,72.7a20.3,20.3,0,0,1,6.5,14.8V208a20.1,20.1,0,0,1-20,20Zm-44-24h40V117.3L128,48.2,52,117.3V204H92V160a20.1,20.1,0,0,1,20-20h32a20.1,20.1,0,0,1,20,20Z"/></svg>
